communes/6056.svg

<?xml version="1.0" encoding="UTF-8" standalone="no"?>
<!-- Created with Inkscape (http://www.inkscape.org/) -->

<svg
   xmlns:dc="http://purl.org/dc/elements/1.1/"
   xmlns:cc="http://creativecommons.org/ns#"
   xmlns:rdf="http://www.w3.org/1999/02/22-rdf-syntax-ns#"
   xmlns:svg="http://www.w3.org/2000/svg"
   xmlns="http://www.w3.org/2000/svg"
   xmlns:sodipodi="http://sodipodi.sourceforge.net/DTD/sodipodi-0.dtd"
   xmlns:inkscape="http://www.inkscape.org/namespaces/inkscape"
   version="1.0"
   width="208.86046"
   height="244.65999"
   id="svg2780"
   inkscape:version="0.92.4 (5da689c313, 2019-01-14)"
   sodipodi:docname="Ernen-blazon.svg">
  <metadata
     id="metadata27">
    <rdf:RDF>
      <cc:Work
         rdf:about="">
        <dc:format>image/svg+xml</dc:format>
        <dc:type
           rdf:resource="http://purl.org/dc/dcmitype/StillImage" />
        <dc:title></dc:title>
      </cc:Work>
    </rdf:RDF>
  </metadata>
  <sodipodi:namedview
     pagecolor="#ffffff"
     bordercolor="#666666"
     borderopacity="1"
     objecttolerance="10"
     gridtolerance="10"
     guidetolerance="10"
     inkscape:pageopacity="0"
     inkscape:pageshadow="2"
     inkscape:window-width="3259"
     inkscape:window-height="1417"
     id="namedview25"
     showgrid="false"
     inkscape:zoom="1"
     inkscape:cx="-22.617675"
     inkscape:cy="272.89834"
     inkscape:window-x="-8"
     inkscape:window-y="-8"
     inkscape:window-maximized="1"
     inkscape:current-layer="svg2780"
     inkscape:measure-start="104.255,149.787"
     inkscape:measure-end="104.255,126.383"
     showguides="true"
     inkscape:object-paths="true"
     inkscape:snap-intersection-paths="true" />
  <defs
     id="defs2782" />
  <path
     id="path4212-7"
     style="fill:#ffffff;fill-opacity:1;fill-rule:evenodd;stroke:#000000;stroke-width:1.99999988;stroke-linecap:butt;stroke-miterlimit:4;stroke-dashoffset:0;stroke-opacity:1"
     d="M 204.09935,159.00304 207.86045,1 C 138.90698,1 69.953503,1 1.000029,1 l 3.7611,158.00304 c 1.64138,68.95393 2.88226,67.30563 99.669111,84.64438 96.78685,-17.33875 98.02773,-15.69045 99.66911,-84.64438 z"
     inkscape:connector-curvature="0"
     sodipodi:nodetypes="sccscs" />
  <path
     style="opacity:1;fill:#cc2918;fill-opacity:1;stroke:#000000;stroke-width:1;stroke-miterlimit:6;stroke-dasharray:none;stroke-dashoffset:4.57999992;stroke-opacity:1"
     d="M 1.0000298,1.0000322 104.43024,1 l 0,242.64742 C 70.86394,237.14079 31.620057,233.17969 16.456208,218.42237 8.0904056,210.20191 5.9281377,194.67601 5.187352,174.16225 4.6126059,158.24645 2.0968185,21.838411 1.0000298,1.0000322 Z"
     id="path49677"
     inkscape:connector-curvature="0"
     sodipodi:nodetypes="ccccsc" />
  <path
     id="path14534-1-6-1"
     style="opacity:1;fill:#ffffff;fill-opacity:1;stroke:#000000;stroke-width:1;stroke-miterlimit:4;stroke-dasharray:none;stroke-dashoffset:4.57999992;stroke-opacity:1"
     d="M 67.208502,203.15782 H 54.209512 41.210522 V 131.48877 H 4.2326431 L 3.2611872,105.49079 H 41.210522 V 33.82174 h 12.99899 12.99899 v 71.66905 h 37.221738 v 25.99798 H 67.208502 Z"
     inkscape:connector-curvature="0"
     sodipodi:nodetypes="ccccccccccccccc" />
  <path
     id="path14534-1-6-1-2"
     style="opacity:1;fill:#cc2918;fill-opacity:1;stroke:#000000;stroke-width:1;stroke-miterlimit:4;stroke-dasharray:none;stroke-dashoffset:4.57999992;stroke-opacity:1"
     d="m 141.65198,203.15782 h 12.99899 12.99899 v -71.66905 h 36.97788 l 0.97146,-25.99798 H 167.64996 V 35.82174 h -14.99899 -10.99899 v 69.66905 h -37.22174 v 25.99798 h 37.22174 z"
     inkscape:connector-curvature="0"
     sodipodi:nodetypes="ccccccccccccccc" />
  <path
     id="path4212-7-3"
     style="fill:none;fill-opacity:1;fill-rule:evenodd;stroke:#000000;stroke-width:1.99999988;stroke-linecap:butt;stroke-miterlimit:4;stroke-dashoffset:0;stroke-opacity:1"
     d="m 204.09935,159.00304 3.7611,-158.00304166 c -68.95347,0 -137.906947,0 -206.860421,0 L 4.761129,159.00304 c 1.64138,68.95393 2.88226,67.30563 99.669111,84.64438 96.78685,-17.33875 98.02773,-15.69045 99.66911,-84.64438 z"
     inkscape:connector-curvature="0"
     sodipodi:nodetypes="sccscs" />
</svg>

<?xml version="1.0" encoding="UTF-8"?>
<svg version="1.0" viewBox="0 0 208.86 244.66" xmlns="http://www.w3.org/2000/svg" xmlns:cc="http://creativecommons.org/ns#" xmlns:dc="http://purl.org/dc/elements/1.1/" xmlns:rdf="http://www.w3.org/1999/02/22-rdf-syntax-ns#">
<metadata>
<rdf:RDF>
<cc:Work rdf:about="">
<dc:format>image/svg+xml</dc:format>
<dc:type rdf:resource="http://purl.org/dc/dcmitype/StillImage"/>
<dc:title/>
</cc:Work>
</rdf:RDF>
</metadata>
<path d="m204.1 159 3.7611-158h-206.86l3.7611 158c1.6414 68.954 2.8823 67.306 99.669 84.644 96.787-17.339 98.028-15.69 99.669-84.644z" fill="#fff" fill-rule="evenodd" stroke="#000" stroke-width="2"/>
<path d="m1 1 103.43-3.22e-5v242.65c-33.566-6.5066-72.81-10.468-87.974-25.225-8.3658-8.2205-10.528-23.746-11.269-44.26-0.57475-15.916-3.0905-152.32-4.1873-173.16z" fill="#cc2918" stroke="#000" stroke-dashoffset="4.58" stroke-miterlimit="6"/>
<path d="m67.209 203.16h-25.998v-71.669h-36.978l-0.97146-25.998h37.949v-71.669h25.998v71.669h37.222v25.998h-37.222z" fill="#fff" stroke="#000" stroke-dashoffset="4.58"/>
<path d="m141.65 203.16h25.998v-71.669h36.978l0.97146-25.998h-37.949v-69.669h-25.998v69.669h-37.222v25.998h37.222z" fill="#cc2918" stroke="#000" stroke-dashoffset="4.58"/>
<path d="m204.1 159 3.7611-158h-206.86l3.7611 158c1.6414 68.954 2.8823 67.306 99.669 84.644 96.787-17.339 98.028-15.69 99.669-84.644z" fill="none" stroke="#000" stroke-width="2"/>
</svg>
